build/finance/BrokerOutline.svg

<svg xmlns="http://www.w3.org/2000/svg" fill="none" viewBox="0 0 24 24" focusable="false"><path d="M0 0H24V24H0z"/><path fill="#74767B" fill-rule="evenodd" d="M5.3 4.68491C5.3 4.32593 5.00899 4.03491 4.65 4.03491C4.29101 4.03491 4 4.32593 4 4.68491L4 18.0038C4 19.0808 4.87304 19.9538 5.95 19.9538L19.3373 19.9538C19.6963 19.9538 19.9873 19.6628 19.9873 19.3038C19.9873 18.9448 19.6963 18.6538 19.3373 18.6538L5.95 18.6538C5.59101 18.6538 5.3 18.3628 5.3 18.0038L5.3 4.68491ZM19.6603 7.95449C19.5232 7.83246 19.3409 7.77406 19.1585 7.79371L16.1374 8.11908C15.7805 8.15752 15.5223 8.47803 15.5607 8.83495C15.5992 9.19187 15.9197 9.45005 16.2766 9.41161L17.6496 9.26373L14.0798 12.8336L11.22 9.97386C11.0981 9.85196 10.9328 9.78348 10.7604 9.78348C10.588 9.78348 10.4227 9.85196 10.3008 9.97386L6.9814 13.2932C6.72756 13.5471 6.72756 13.9586 6.9814 14.2125C7.23524 14.4663 7.64679 14.4663 7.90063 14.2125L10.7604 11.3527L13.6201 14.2125C13.742 14.3344 13.9074 14.4028 14.0798 14.4028C14.2521 14.4028 14.4175 14.3344 14.5394 14.2125L18.593 10.1588L18.6039 11.4113C18.607 11.7702 18.9006 12.0587 19.2596 12.0556C19.6185 12.0524 19.907 11.7589 19.9039 11.3999L19.878 8.43431C19.8764 8.2508 19.7973 8.07652 19.6603 7.95449Z"/></svg>

<svg xmlns="http://www.w3.org/2000/svg" fill="none" viewBox="0 0 24 24" focusable="false"><path fill="#74767B" fill-rule="evenodd" d="M4.64 4.03c.36 0 .66.29.66.65V18c0 .36.29.65.65.65h13.38c.36 0 .65.29.65.65s-.29.65-.65.65H5.95C4.87 19.95 4 19.08 4 18V4.68c0-.36.29-.65.64-.65m15.02 3.92a.67.67 0 0 0-.51-.16l-3.02.32c-.35.04-.61.36-.57.72.03.36.35.62.71.58l1.37-.15-3.57 3.57-2.85-2.86a.68.68 0 0 0-.46-.19c-.18 0-.34.07-.46.19l-3.32 3.32a.64.64 0 0 0 0 .92c.25.25.66.25.92 0l2.86-2.86 2.86 2.86a.636.636 0 0 0 .91 0l4.06-4.06.01 1.26c0 .36.3.64.65.64.36 0 .65-.3.65-.66l-.03-2.96c0-.18-.08-.36-.21-.48"/></svg>
